public/images/it-wasnt-made-for-that/figma-a-0.svg

<svg fill="none" height="328" viewBox="0 0 1012 328" width="1012" xmlns="http://www.w3.org/2000/svg"><path d="m0 0h1012v328h-1012z" fill="#fff"/><circle cx="246" cy="220" fill="#fff" r="88" stroke="#00a2ff" stroke-width="4"/><path d="m211.215 222.64v12.36h5.32v-27.64h-5.32v11.08h-9.84v-11.08h-5.28v27.64h5.28v-12.36zm20.235-9.4c-6.28 0-10 4.52-10 11.16 0 6.96 3.72 11.2 9.96 11.2s9.96-4.52 9.96-11.2c0-6.92-3.68-11.16-9.92-11.16zm0 3.88c2.96 0 4.52 2.24 4.52 7.28s-1.56 7.32-4.56 7.32-4.56-2.24-4.56-7.32c0-5 1.6-7.28 4.6-7.28zm37.16-3.88c-2.8 0-4.76 1.36-6.36 3.56-.8-2.24-2.64-3.56-5.12-3.56-2.68 0-4.6 1.24-6.12 3.36l-.4-2.76h-4.44v21.16h5.12v-14.72c1.16-1.96 2.24-3.2 4.04-3.2 1.24 0 2.32.76 2.32 3.4v14.52h5.12v-14.72c1.16-1.96 2.24-3.2 4-3.2 1.28 0 2.32.76 2.32 3.4v14.52h5.12v-15.32c0-4-2.24-6.44-5.6-6.44zm28.904 10.68c0-6.68-3.4-10.68-9.32-10.68-6 0-9.4 4.88-9.4 11.32 0 6.68 3.52 11.04 10.08 11.04 3.2 0 5.76-1.16 7.84-2.84l-2.12-2.92c-1.84 1.28-3.4 1.88-5.28 1.88-2.8 0-4.84-1.4-5.2-5.72h13.28c.04-.56.12-1.4.12-2.08zm-5.08-1.24h-8.32c.28-4.2 1.8-5.8 4.2-5.8 2.88 0 4.12 2.08 4.12 5.56z" fill="#00a2ff"/><circle cx="506" cy="220" fill="#fff" r="89" stroke="#000" stroke-width="2"/><path d="m480.968 235v-27.64h-4.8v12.96c0 3.92.48 7.92.72 9.44l-9.64-22.4h-6.68v27.64h4.8v-11.28c0-5.12-.44-8.64-.72-11.08l9.48 22.36zm23.675-11.08c0-6.68-3.4-10.68-9.32-10.68-6 0-9.4 4.88-9.4 11.32 0 6.68 3.52 11.04 10.08 11.04 3.2 0 5.76-1.16 7.84-2.84l-2.12-2.92c-1.84 1.28-3.4 1.88-5.28 1.88-2.8 0-4.84-1.4-5.2-5.72h13.28c.04-.56.12-1.4.12-2.08zm-5.08-1.24h-8.32c.28-4.2 1.8-5.8 4.2-5.8 2.88 0 4.12 2.08 4.12 5.56zm31.03 12.32 4.6-21.16h-4.92l-3.16 17.4-3.36-17.4h-5.24l-3.68 17.4-2.96-17.4h-5.12l4.68 21.16h6.28l3.28-16.6 3.2 16.6zm14.815-21.76c-4.92 0-8.16 2.64-8.16 6.16 0 3.12 1.92 5.2 6.28 6.4 3.96 1.12 4.8 1.68 4.8 3.52 0 1.48-1.48 2.48-3.8 2.48-2.12 0-4.08-.84-5.68-2.12l-2.6 2.92c1.96 1.76 4.8 3 8.44 3 4.84 0 8.92-2.32 8.92-6.72 0-3.76-2.44-5.52-6.76-6.68-3.6-1-4.44-1.64-4.44-3.04 0-1.28 1.16-2.12 3.32-2.12 1.76 0 3.44.6 5.2 1.8l2-3.08c-2-1.56-4.48-2.52-7.52-2.52z" fill="#000"/><circle cx="766" cy="220" fill="#fff" r="89" stroke="#000" stroke-width="2"/><path d="m717.654 207.36h-8.16v27.64h5.28v-9.64h3.24c6.24 0 10.84-2.84 10.84-9.2 0-5.96-4.24-8.8-11.2-8.8zm-.04 14.04h-2.84v-10.16h2.84c3.6 0 5.72 1.44 5.72 4.92 0 4.04-2.2 5.24-5.72 5.24zm25.793-8.12c-2.48 0-4.52 1.68-5.52 4.72l-.48-4.16h-4.44v21.16h5.12v-11.28c.8-3.56 2.12-5.44 4.68-5.44.72 0 1.24.08 1.88.24l.88-4.96c-.68-.2-1.36-.28-2.12-.28zm13.551-.04c-6.28 0-10 4.52-10 11.16 0 6.96 3.72 11.2 9.96 11.2s9.96-4.52 9.96-11.2c0-6.92-3.68-11.16-9.92-11.16zm0 3.88c2.96 0 4.52 2.24 4.52 7.28s-1.56 7.32-4.56 7.32-4.56-2.24-4.56-7.32c0-5 1.6-7.28 4.6-7.28zm23.48-12.32c-5.76 0-8.16 2.92-8.16 6.8v2.24h-3.28v3.68h3.28v17.48h5.12v-17.48h6.68v17.48h5.12v-21.16h-11.8v-2.16c0-2 .76-2.96 3.52-2.96 1.64 0 3.16.4 4.44 1l1.56-3.4c-1.72-.84-3.8-1.52-6.48-1.52zm19.832 25.04v-25.04l-5.12.56v24.84c0 3.52 1.8 5.4 4.96 5.4 1.32 0 2.6-.28 3.64-.72l-1.08-3.6c-.36.12-.8.2-1.2.2-.84 0-1.2-.48-1.2-1.64zm23.846-5.92c0-6.68-3.4-10.68-9.32-10.68-6 0-9.4 4.88-9.4 11.32 0 6.68 3.52 11.04 10.08 11.04 3.2 0 5.76-1.16 7.84-2.84l-2.12-2.92c-1.84 1.28-3.4 1.88-5.28 1.88-2.8 0-4.84-1.4-5.2-5.72h13.28c.04-.56.12-1.4.12-2.08zm-5.08-1.24h-8.32c.28-4.2 1.8-5.8 4.2-5.8 2.88 0 4.12 2.08 4.12 5.56z" fill="#000"/><path d="m387.576 37.0133c.722 0 1.411-.1312 2.068-.3938.667-.2626 1.346-.6345 2.035-1.1159l1.969 2.7733c-.788.6783-1.729 1.2199-2.823 1.6246-1.094.3939-2.237.5908-3.429.5908-1.794 0-3.348-.3774-4.661-1.1323-1.302-.7549-2.303-1.8161-3.003-3.1836-.689-1.3675-1.034-2.9538-1.034-4.759 0-1.7942.35-3.3914 1.051-4.7918.711-1.4112 1.728-2.5107 3.052-3.2984 1.324-.7987 2.877-1.198 4.66-1.198 1.237 0 2.358.1751 3.364.5252 1.018.35 1.953.8806 2.807 1.5918l-1.92 2.6584c-1.346-.919-2.719-1.3784-4.119-1.3784-1.346 0-2.407.4813-3.184 1.4441-.766.9627-1.149 2.4451-1.149 4.4471 0 1.9583.383 3.3805 1.149 4.2667.777.8862 1.833 1.3292 3.167 1.3292zm15.273-2.3466c0 .9189.181 1.5754.542 1.9692s.908.5908 1.641.5908c.667 0 1.324-.2024 1.969-.6072.657-.4048 1.187-.9299 1.592-1.5754v-12.4226h4.332v17.3785h-3.774l-.23-2.1333c-.612.8424-1.4 1.4933-2.363 1.9528-.963.4485-1.98.6728-3.052.6728-1.652 0-2.899-.4649-3.742-1.3949-.831-.9299-1.247-2.2318-1.247-3.9056v-12.5703h4.332zm28.09-12.5211c.525 0 1.001.0438 1.428.1313.437.0766.869.1915 1.296.3446l-.771 6.7775h-2.888v-3.3969c-1.105.0875-2.074.5853-2.905 1.4933-.821.908-1.472 2.1388-1.953 3.6923v5.8092h3.463v3.0031h-10.24v-3.0031h2.445v-11.3887h-2.445v-2.9867h5.743l.804 3.9877c.646-1.4988 1.45-2.6147 2.413-3.3477.973-.7439 2.177-1.1159 3.61-1.1159zm19.687 0c.526 0 1.001.0438 1.428.1313.438.0766.87.1915 1.297.3446l-.772 6.7775h-2.888v-3.3969c-1.105.0875-2.073.5853-2.905 1.4933-.82.908-1.471 2.1388-1.952 3.6923v5.8092h3.462v3.0031h-10.24v-3.0031h2.445v-11.3887h-2.445v-2.9867h5.744l.804 3.9877c.645-1.4988 1.449-2.6147 2.412-3.3477.974-.7439 2.177-1.1159 3.61-1.1159zm10.646 10.4862c.12 1.5644.58 2.7241 1.378 3.479.81.7548 1.844 1.1323 3.102 1.1323.798 0 1.564-.1258 2.297-.3775.733-.2516 1.472-.6235 2.216-1.1159l1.805 2.478c-.843.7111-1.827 1.2691-2.954 1.6738-1.127.3939-2.341.5908-3.643.5908-1.849 0-3.424-.3829-4.726-1.1487-1.291-.7658-2.27-1.838-2.938-3.2164-.656-1.3785-.984-2.9757-.984-4.7918 0-1.7395.322-3.3039.968-4.6933.656-1.4004 1.597-2.4999 2.822-3.2985 1.237-.8096 2.692-1.2144 4.366-1.2144 1.575 0 2.948.3501 4.119 1.0503 1.17.7002 2.073 1.7121 2.707 3.0359.635 1.3128.952 2.8773.952 4.6933 0 .6236-.027 1.198-.082 1.7231zm3.725-7.4503c-1.083 0-1.958.3884-2.626 1.1652-.656.7658-1.039 1.9364-1.148 3.5118h7.319c-.022-1.4988-.334-2.653-.936-3.4626-.591-.8096-1.46-1.2144-2.609-1.2144zm12.27 14.8185v-17.3785h3.774l.312 2.1498c.744-.8752 1.581-1.5316 2.511-1.9692.93-.4486 1.931-.6729 3.003-.6729 1.554 0 2.741.4486 3.561 1.3457.832.8971 1.247 2.1661 1.247 3.8072v12.7179h-4.332v-11.0277c0-.919-.06-1.6301-.181-2.1333-.109-.5142-.317-.8862-.623-1.1159-.296-.2407-.733-.361-1.313-.361-1.269 0-2.478.7712-3.627 2.3138v12.3241zm34.687-.9682c-.679.4485-1.483.8041-2.413 1.0667-.919.2625-1.892.3938-2.921.3938-1.389 0-2.565-.2461-3.528-.7385-.952-.4923-1.668-1.187-2.15-2.0841-.481-.908-.722-1.9801-.722-3.2164v-8.763h-3.774v-3.0688h3.774v-3.8236l4.332-.5251v4.3487h5.744l-.443 3.0688h-5.301v8.7466c0 .9081.219 1.5699.657 1.9857.438.4048 1.143.6071 2.117.6071 1.116 0 2.161-.2625 3.134-.7876zm24.507-14.3097h14.145v3.4625h-14.145zm0 6.6789h14.145v3.4462h-14.145zm54.226 8.599h-4.496v-9.9774h-6.564v9.9774h-4.497v-22.6954h4.497v9.0257h6.564v-9.0257h4.496zm11.926-17.8708c1.706 0 3.167.3775 4.381 1.1323 1.214.744 2.133 1.8052 2.757 3.1836.635 1.3675.952 2.9758.952 4.8246 0 1.8818-.317 3.5173-.952 4.9067-.635 1.3785-1.564 2.4451-2.79 3.2-1.214.7439-2.669 1.1159-4.365 1.1159-1.707 0-3.167-.3665-4.381-1.0995-1.215-.733-2.139-1.7887-2.774-3.1672-.634-1.3784-.952-3.0194-.952-4.923 0-1.8161.318-3.4134.952-4.7918.646-1.3894 1.576-2.467 2.79-3.2328 1.225-.7659 2.686-1.1488 4.382-1.1488zm0 3.2657c-1.226 0-2.134.4813-2.725 1.4441-.59.9518-.886 2.4396-.886 4.4636 0 2.0458.296 3.5446.886 4.4964.591.9518 1.494 1.4277 2.708 1.4277 1.215 0 2.117-.4759 2.708-1.4277.591-.9628.886-2.4725.886-4.5293 0-2.002-.295-3.4789-.886-4.4307-.591-.9628-1.488-1.4441-2.691-1.4441zm24.823-3.2657c1.16 0 2.041.3829 2.643 1.1488.601.7658.902 2.0458.902 3.8399v12.8821h-3.774v-12.3405c0-.558-.028-.9846-.082-1.28-.044-.3063-.143-.5306-.296-.6728-.142-.1423-.361-.2134-.656-.2134-.799 0-1.543.4869-2.232 1.4605v13.0462h-3.266v-12.3405c0-.558-.027-.9846-.082-1.28-.043-.3063-.142-.5306-.295-.6728-.142-.1423-.361-.2134-.656-.2134-.394 0-.772.1149-1.133.3446-.361.2189-.727.5908-1.099 1.1159v13.0462h-3.824v-17.3785h3.233l.279 1.8052c.558-.7658 1.116-1.3402 1.674-1.7231.569-.3829 1.236-.5744 2.002-.5744.7 0 1.296.1751 1.789.5252.492.3391.842.8752 1.05 1.6082.547-.6783 1.127-1.2035 1.739-1.5754.624-.372 1.319-.558 2.084-.558zm11.023 10.5026c.121 1.5644.58 2.7241 1.379 3.479.809.7548 1.843 1.1323 3.101 1.1323.799 0 1.565-.1258 2.298-.3775.733-.2516 1.471-.6235 2.215-1.1159l1.805 2.478c-.842.7111-1.827 1.2691-2.954 1.6738-1.126.3939-2.341.5908-3.643.5908-1.849 0-3.424-.3829-4.726-1.1487-1.291-.7658-2.27-1.838-2.937-3.2164-.657-1.3785-.985-2.9757-.985-4.7918 0-1.7395.323-3.3039.968-4.6933.657-1.4004 1.598-2.4999 2.823-3.2985 1.236-.8096 2.691-1.2144 4.365-1.2144 1.575 0 2.948.3501 4.119 1.0503s2.073 1.7121 2.708 3.0359c.634 1.3128.952 2.8773.952 4.6933 0 .6236-.028 1.198-.083 1.7231zm3.725-7.4503c-1.083 0-1.958.3884-2.625 1.1652-.657.7658-1.039 1.9364-1.149 3.5118h7.319c-.022-1.4988-.334-2.653-.935-3.4626-.591-.8096-1.461-1.2144-2.61-1.2144z" fill="#815cff"/></svg>

<svg width="1012" height="328" viewBox="0 0 1012 328" fill="none" xmlns="http://www.w3.org/2000/svg">
<rect width="1012" height="328" fill="white"/>
<circle cx="246" cy="220" r="88" fill="white" stroke="#00A2FF" stroke-width="4"/>
<path d="M211.215 222.64V235H216.535V207.36H211.215V218.44H201.375V207.36H196.095V235H201.375V222.64H211.215ZM231.45 213.24C225.17 213.24 221.45 217.76 221.45 224.4C221.45 231.36 225.17 235.6 231.41 235.6C237.65 235.6 241.37 231.08 241.37 224.4C241.37 217.48 237.69 213.24 231.45 213.24ZM231.45 217.12C234.41 217.12 235.97 219.36 235.97 224.4C235.97 229.44 234.41 231.72 231.41 231.72C228.41 231.72 226.85 229.48 226.85 224.4C226.85 219.4 228.45 217.12 231.45 217.12ZM268.61 213.24C265.81 213.24 263.85 214.6 262.25 216.8C261.45 214.56 259.61 213.24 257.13 213.24C254.45 213.24 252.53 214.48 251.01 216.6L250.61 213.84H246.17V235H251.29V220.28C252.45 218.32 253.53 217.08 255.33 217.08C256.57 217.08 257.65 217.84 257.65 220.48V235H262.77V220.28C263.93 218.32 265.01 217.08 266.77 217.08C268.05 217.08 269.09 217.84 269.09 220.48V235H274.21V219.68C274.21 215.68 271.97 213.24 268.61 213.24ZM297.514 223.92C297.514 217.24 294.114 213.24 288.194 213.24C282.194 213.24 278.794 218.12 278.794 224.56C278.794 231.24 282.314 235.6 288.874 235.6C292.074 235.6 294.634 234.44 296.714 232.76L294.594 229.84C292.754 231.12 291.194 231.72 289.314 231.72C286.514 231.72 284.474 230.32 284.114 226H297.394C297.434 225.44 297.514 224.6 297.514 223.92ZM292.434 222.68H284.114C284.394 218.48 285.914 216.88 288.314 216.88C291.194 216.88 292.434 218.96 292.434 222.44V222.68Z" fill="#00A2FF"/>
<circle cx="506" cy="220" r="89" fill="white" stroke="black" stroke-width="2"/>
<path d="M480.968 235V207.36H476.168V220.32C476.168 224.24 476.648 228.24 476.888 229.76L467.248 207.36H460.568V235H465.368V223.72C465.368 218.6 464.928 215.08 464.648 212.64L474.128 235H480.968ZM504.643 223.92C504.643 217.24 501.243 213.24 495.323 213.24C489.323 213.24 485.923 218.12 485.923 224.56C485.923 231.24 489.443 235.6 496.003 235.6C499.203 235.6 501.763 234.44 503.843 232.76L501.723 229.84C499.883 231.12 498.323 231.72 496.443 231.72C493.643 231.72 491.603 230.32 491.243 226H504.523C504.563 225.44 504.643 224.6 504.643 223.92ZM499.563 222.68H491.243C491.523 218.48 493.043 216.88 495.443 216.88C498.323 216.88 499.563 218.96 499.563 222.44V222.68ZM530.593 235L535.193 213.84H530.273L527.113 231.24L523.753 213.84H518.513L514.833 231.24L511.873 213.84H506.753L511.433 235H517.713L520.993 218.4L524.193 235H530.593ZM545.408 213.24C540.488 213.24 537.248 215.88 537.248 219.4C537.248 222.52 539.168 224.6 543.528 225.8C547.488 226.92 548.328 227.48 548.328 229.32C548.328 230.8 546.848 231.8 544.528 231.8C542.408 231.8 540.448 230.96 538.848 229.68L536.248 232.6C538.208 234.36 541.048 235.6 544.688 235.6C549.528 235.6 553.608 233.28 553.608 228.88C553.608 225.12 551.168 223.36 546.848 222.2C543.248 221.2 542.408 220.56 542.408 219.16C542.408 217.88 543.568 217.04 545.728 217.04C547.488 217.04 549.168 217.64 550.928 218.84L552.928 215.76C550.928 214.2 548.448 213.24 545.408 213.24Z" fill="black"/>
<circle cx="766" cy="220" r="89" fill="white" stroke="black" stroke-width="2"/>
<path d="M717.654 207.36H709.494V235H714.774V225.36H718.014C724.254 225.36 728.854 222.52 728.854 216.16C728.854 210.2 724.614 207.36 717.654 207.36ZM717.614 221.4H714.774V211.24H717.614C721.214 211.24 723.334 212.68 723.334 216.16C723.334 220.2 721.134 221.4 717.614 221.4ZM743.407 213.28C740.927 213.28 738.887 214.96 737.887 218L737.407 213.84H732.967V235H738.087V223.72C738.887 220.16 740.207 218.28 742.767 218.28C743.487 218.28 744.007 218.36 744.647 218.52L745.527 213.56C744.847 213.36 744.167 213.28 743.407 213.28ZM756.958 213.24C750.678 213.24 746.958 217.76 746.958 224.4C746.958 231.36 750.678 235.6 756.918 235.6C763.158 235.6 766.878 231.08 766.878 224.4C766.878 217.48 763.198 213.24 756.958 213.24ZM756.958 217.12C759.918 217.12 761.478 219.36 761.478 224.4C761.478 229.44 759.918 231.72 756.918 231.72C753.918 231.72 752.358 229.48 752.358 224.4C752.358 219.4 753.958 217.12 756.958 217.12ZM780.438 204.8C774.678 204.8 772.278 207.72 772.278 211.6V213.84H768.998V217.52H772.278V235H777.398V217.52H784.078V235H789.198V213.84H777.398V211.68C777.398 209.68 778.158 208.72 780.918 208.72C782.558 208.72 784.078 209.12 785.358 209.72L786.918 206.32C785.198 205.48 783.118 204.8 780.438 204.8ZM800.27 229.84V204.8L795.15 205.36V230.2C795.15 233.72 796.95 235.6 800.11 235.6C801.43 235.6 802.71 235.32 803.75 234.88L802.67 231.28C802.31 231.4 801.87 231.48 801.47 231.48C800.63 231.48 800.27 231 800.27 229.84ZM824.116 223.92C824.116 217.24 820.716 213.24 814.796 213.24C808.796 213.24 805.396 218.12 805.396 224.56C805.396 231.24 808.916 235.6 815.476 235.6C818.676 235.6 821.236 234.44 823.316 232.76L821.196 229.84C819.356 231.12 817.796 231.72 815.916 231.72C813.116 231.72 811.076 230.32 810.716 226H823.996C824.036 225.44 824.116 224.6 824.116 223.92ZM819.036 222.68H810.716C810.996 218.48 812.516 216.88 814.916 216.88C817.796 216.88 819.036 218.96 819.036 222.44V222.68Z" fill="black"/>
<path d="M387.576 37.0133C388.298 37.0133 388.987 36.8821 389.644 36.6195C390.311 36.3569 390.99 35.985 391.679 35.5036L393.648 38.2769C392.86 38.9552 391.919 39.4968 390.825 39.9015C389.731 40.2954 388.588 40.4923 387.396 40.4923C385.602 40.4923 384.048 40.1149 382.735 39.36C381.433 38.6051 380.432 37.5439 379.732 36.1764C379.043 34.8089 378.698 33.2226 378.698 31.4174C378.698 29.6232 379.048 28.026 379.749 26.6256C380.46 25.2144 381.477 24.1149 382.801 23.3272C384.125 22.5285 385.678 22.1292 387.461 22.1292C388.698 22.1292 389.819 22.3043 390.825 22.6544C391.843 23.0044 392.778 23.535 393.632 24.2462L391.712 26.9046C390.366 25.9856 388.993 25.5262 387.593 25.5262C386.247 25.5262 385.186 26.0075 384.409 26.9703C383.643 27.933 383.26 29.4154 383.26 31.4174C383.26 33.3757 383.643 34.7979 384.409 35.6841C385.186 36.5703 386.242 37.0133 387.576 37.0133ZM402.849 34.6667C402.849 35.5856 403.03 36.2421 403.391 36.6359C403.752 37.0297 404.299 37.2267 405.032 37.2267C405.699 37.2267 406.356 37.0243 407.001 36.6195C407.658 36.2147 408.188 35.6896 408.593 35.0441V22.6215H412.925V40H409.151L408.921 37.8667C408.309 38.7091 407.521 39.36 406.558 39.8195C405.595 40.268 404.578 40.4923 403.506 40.4923C401.854 40.4923 400.607 40.0274 399.764 39.0974C398.933 38.1675 398.517 36.8656 398.517 35.1918V22.6215H402.849V34.6667ZM430.939 22.1456C431.464 22.1456 431.94 22.1894 432.367 22.2769C432.804 22.3535 433.236 22.4684 433.663 22.6215L432.892 29.399H430.004V26.0021C428.899 26.0896 427.93 26.5874 427.099 27.4954C426.278 28.4034 425.627 29.6342 425.146 31.1877V36.9969H428.609V40H418.369V36.9969H420.814V25.6082H418.369V22.6215H424.112L424.916 26.6092C425.562 25.1104 426.366 23.9945 427.329 23.2615C428.302 22.5176 429.506 22.1456 430.939 22.1456ZM450.626 22.1456C451.152 22.1456 451.627 22.1894 452.054 22.2769C452.492 22.3535 452.924 22.4684 453.351 22.6215L452.579 29.399H449.691V26.0021C448.586 26.0896 447.618 26.5874 446.786 27.4954C445.966 28.4034 445.315 29.6342 444.834 31.1877V36.9969H448.296V40H438.056V36.9969H440.501V25.6082H438.056V22.6215H443.8L444.604 26.6092C445.249 25.1104 446.053 23.9945 447.016 23.2615C447.99 22.5176 449.193 22.1456 450.626 22.1456ZM461.272 32.6318C461.392 34.1962 461.852 35.3559 462.65 36.1108C463.46 36.8656 464.494 37.2431 465.752 37.2431C466.55 37.2431 467.316 37.1173 468.049 36.8656C468.782 36.614 469.521 36.2421 470.265 35.7497L472.07 38.2277C471.227 38.9388 470.243 39.4968 469.116 39.9015C467.989 40.2954 466.775 40.4923 465.473 40.4923C463.624 40.4923 462.049 40.1094 460.747 39.3436C459.456 38.5778 458.477 37.5056 457.809 36.1272C457.153 34.7487 456.825 33.1515 456.825 31.3354C456.825 29.5959 457.147 28.0315 457.793 26.6421C458.449 25.2417 459.39 24.1422 460.615 23.3436C461.852 22.534 463.307 22.1292 464.981 22.1292C466.556 22.1292 467.929 22.4793 469.1 23.1795C470.27 23.8797 471.173 24.8916 471.807 26.2154C472.442 27.5282 472.759 29.0927 472.759 30.9087C472.759 31.5323 472.732 32.1067 472.677 32.6318H461.272ZM464.997 25.1815C463.914 25.1815 463.039 25.5699 462.371 26.3467C461.715 27.1125 461.332 28.2831 461.223 29.8585H468.542C468.52 28.3597 468.208 27.2055 467.606 26.3959C467.015 25.5863 466.146 25.1815 464.997 25.1815ZM477.267 40V22.6215H481.041L481.353 24.7713C482.097 23.8961 482.934 23.2397 483.864 22.8021C484.794 22.3535 485.795 22.1292 486.867 22.1292C488.421 22.1292 489.608 22.5778 490.428 23.4749C491.26 24.372 491.675 25.641 491.675 27.2821V40H487.343V28.9723C487.343 28.0533 487.283 27.3422 487.162 26.839C487.053 26.3248 486.845 25.9528 486.539 25.7231C486.243 25.4824 485.806 25.3621 485.226 25.3621C483.957 25.3621 482.748 26.1333 481.599 27.6759V40H477.267ZM511.954 39.0318C511.275 39.4803 510.471 39.8359 509.541 40.0985C508.622 40.361 507.649 40.4923 506.62 40.4923C505.231 40.4923 504.055 40.2462 503.092 39.7538C502.14 39.2615 501.424 38.5668 500.942 37.6697C500.461 36.7617 500.22 35.6896 500.22 34.4533V25.6903H496.446V22.6215H500.22V18.7979L504.552 18.2728V22.6215H510.296L509.853 25.6903H504.552V34.4369C504.552 35.345 504.771 36.0068 505.209 36.4226C505.647 36.8274 506.352 37.0297 507.326 37.0297C508.442 37.0297 509.487 36.7672 510.46 36.2421L511.954 39.0318ZM536.461 24.7221H550.606V28.1846H536.461V24.7221ZM536.461 31.401H550.606V34.8472H536.461V31.401ZM590.687 40H586.191V30.0226H579.627V40H575.13V17.3046H579.627V26.3303H586.191V17.3046H590.687V40ZM602.613 22.1292C604.319 22.1292 605.78 22.5067 606.994 23.2615C608.208 24.0055 609.127 25.0667 609.751 26.4451C610.386 27.8126 610.703 29.4209 610.703 31.2697C610.703 33.1515 610.386 34.787 609.751 36.1764C609.116 37.5549 608.187 38.6215 606.961 39.3764C605.747 40.1203 604.292 40.4923 602.596 40.4923C600.889 40.4923 599.429 40.1258 598.215 39.3928C597 38.6598 596.076 37.6041 595.441 36.2256C594.807 34.8472 594.489 33.2062 594.489 31.3026C594.489 29.4865 594.807 27.8892 595.441 26.5108C596.087 25.1214 597.017 24.0438 598.231 23.278C599.456 22.5121 600.917 22.1292 602.613 22.1292ZM602.613 25.3949C601.387 25.3949 600.479 25.8762 599.888 26.839C599.298 27.7908 599.002 29.2786 599.002 31.3026C599.002 33.3484 599.298 34.8472 599.888 35.799C600.479 36.7508 601.382 37.2267 602.596 37.2267C603.811 37.2267 604.713 36.7508 605.304 35.799C605.895 34.8362 606.19 33.3265 606.19 31.2697C606.19 29.2677 605.895 27.7908 605.304 26.839C604.713 25.8762 603.816 25.3949 602.613 25.3949ZM627.436 22.1292C628.596 22.1292 629.477 22.5121 630.079 23.278C630.68 24.0438 630.981 25.3238 630.981 27.1179V40H627.207V27.6595C627.207 27.1015 627.179 26.6749 627.125 26.3795C627.081 26.0732 626.982 25.8489 626.829 25.7067C626.687 25.5644 626.468 25.4933 626.173 25.4933C625.374 25.4933 624.63 25.9802 623.941 26.9538V40H620.675V27.6595C620.675 27.1015 620.648 26.6749 620.593 26.3795C620.55 26.0732 620.451 25.8489 620.298 25.7067C620.156 25.5644 619.937 25.4933 619.642 25.4933C619.248 25.4933 618.87 25.6082 618.509 25.8379C618.148 26.0568 617.782 26.4287 617.41 26.9538V40H613.586V22.6215H616.819L617.098 24.4267C617.656 23.6609 618.214 23.0865 618.772 22.7036C619.341 22.3207 620.008 22.1292 620.774 22.1292C621.474 22.1292 622.07 22.3043 622.563 22.6544C623.055 22.9935 623.405 23.5296 623.613 24.2626C624.16 23.5843 624.74 23.0591 625.352 22.6872C625.976 22.3152 626.671 22.1292 627.436 22.1292ZM638.459 32.6318C638.58 34.1962 639.039 35.3559 639.838 36.1108C640.647 36.8656 641.681 37.2431 642.939 37.2431C643.738 37.2431 644.504 37.1173 645.237 36.8656C645.97 36.614 646.708 36.2421 647.452 35.7497L649.257 38.2277C648.415 38.9388 647.43 39.4968 646.303 39.9015C645.177 40.2954 643.962 40.4923 642.66 40.4923C640.811 40.4923 639.236 40.1094 637.934 39.3436C636.643 38.5778 635.664 37.5056 634.997 36.1272C634.34 34.7487 634.012 33.1515 634.012 31.3354C634.012 29.5959 634.335 28.0315 634.98 26.6421C635.637 25.2417 636.578 24.1422 637.803 23.3436C639.039 22.534 640.494 22.1292 642.168 22.1292C643.743 22.1292 645.116 22.4793 646.287 23.1795C647.458 23.8797 648.36 24.8916 648.995 26.2154C649.629 27.5282 649.947 29.0927 649.947 30.9087C649.947 31.5323 649.919 32.1067 649.864 32.6318H638.459ZM642.184 25.1815C641.101 25.1815 640.226 25.5699 639.559 26.3467C638.902 27.1125 638.52 28.2831 638.41 29.8585H645.729C645.707 28.3597 645.395 27.2055 644.794 26.3959C644.203 25.5863 643.333 25.1815 642.184 25.1815Z" fill="#815CFF"/>
</svg>
